X:13
T:No.33 King GeorgeIV
C:reel
M:4/4
L:1/8
K:D
A,2EA, FA,EA,|A,2ED =CA,A,G,|
A,2EA, FA,EF|[1G2D=C B,G,G,B,:|
|[2G2D=C B,G,G,d||cAAA eaed|
cAAA BGBd|cAAA eaef|
ged=c BGBd|^cAAA eaed|
cAAA BGBd|=c2dc B2dB|=caBg cBGB,||
